X:1
T:Which Side Are You On?
T:Which Side Are You On?
T:Thompson H. Jones
T:Thompson H. Jones, 1906
T:Public Domain Courtesy of the Cyber Hymnal™
T:Public Domain Courtesy of the Cyber Hymnal™
C:Thompson H. Jones
Z:Public Domain
Z:Courtesy of the Cyber Hymnal™
%%score ( 1 2 ) ( 3 4 )
L:1/8
Q:1/4=97
M:4/4
K:F
V:1 treble 
V:2 treble 
V:3 bass 
V:4 bass 
V:1
 C | [FA]>[FA] [FA]>[FG] F>[FG] [FA]>[FB] | [Fc]6 [Fc]2 | [Ec]>[EG] [EG]>[FA] [GB]>[Bd] [Ac]>[GB] | %4
w: 1.~I|see the ar- mies gath- ’ring for the|fray, Their|hosts are be- ing mar- shaled once a-|
w: 2.~You|can- not be a care- less look- er|on, You|can- not neu- tral be in this long|
w: 3.~Choose|ye be- tween the e- vil and the|good, Be-|tween the path of hon- or and of|
w: 4.~Gird|on thine ar- mor for the cause of|right, Which|strives for pu- ri- ty, and love and|
 [FA]6 C2 | [FA]>[FA] [FA]>[FG] F>[FG] [FA]>[FB] | [Fc]6 [Fc]2 | %7
w: gain; The|noise of pre- par- a- tion all the|day, Is|
w: strife; You|must es- pouse the cause of right or|wrong, You|
w: shame; Be-|tween the hands which min- gle tears and|blood, And|
w: home; And|know that God with His e- ter- nal|might Will|
 [Fd]<[Fd] [FB]>[Fd] [Fc]>[FA] [EG]>[EA] | F6 ||"^Refrain" [Fc]2 | %10
w: ring- ing thro’ the vale and o’er the|plain.||
w: must your in- fluence give to death or|life.||
w: those which lift the fall- en in His|name.||
w: give thee strength the foe to o- ver-|come.||
 [Fd]2 [Fd]>[Fd] [FB]2 [Fd]>[Fd] | [Fc]4 .[FA].[Fc] z [FA] | [EG]2 [Ec][Ec] [F=B]>[Gf] [Ge]>[Fd] | %13
w: |||
w: |||
w: |||
w: |||
 (z2 [FA]>)[GB] x6 | [Ac]2 [FA]>[FG] | F2 [EG]>[E^G] | [FA]>[FA] [FB]>[Fc] !fermata![Fd]2 [Fd]2 | %17
w: ||||
w: ||||
w: ||||
w: ||||
 [Fc]<[Fc] [Fc]>[FA] [EG]>[EB] [EA]>[EG] | [CF]6 z |] %19
w: ||
w: ||
w: ||
w: ||
V:2
 C | x4 F3/2 x5/2 | x8 | x8 | x6 C2 | x4 F3/2 x5/2 | x8 | x8 | F6 || x2 | x8 | x8 | x8 | %13
 ([Ec]6 GF E2) | x4 | F2 x2 | x8 | x8 | x7 |] %19
V:3
 [F,A,] | [F,C]>[F,C] [F,C]>[F,B,] [F,A,]>[F,B,] [F,C]>[F,G,] | [F,A,]6 [F,A,]2 | %3
w: ~|~ ~ ~ ~ ~ ~ ~ ~|~ ~|
 [C,G,]>[C,C] [C,C]>[C,C] [C,C]>[C,C] [D,C]>[E,C] | [F,C]6 [F,A,]2 | %5
w: ~ ~ ~ ~ ~ ~ ~ ~|~ ~|
 [F,C]>[F,C] [F,C]>[F,B,] [F,A,]>[F,B,] [F,C]>[F,G,] | [F,A,]6 [F,A,]2 | %7
w: ~ ~ ~ ~ ~ ~ ~ ~|~ ~|
 [B,,B,]<[B,,B,] [B,,D]>[B,,B,] [C,A,]>[C,C] [C,B,]>[C,C] | [F,A,]6 || [F,A,]2 | %10
w: ~ ~ ~ ~ ~ ~ ~ ~|~|Which|
 [B,,B,]2 [B,,B,]>[B,,B,] [B,,D]2 [B,,B,]>[B,,B,] | [F,A,]4 .[F,C].[F,A,] z [F,C] | %12
w: side are you on in this|fight, sol- dier? Which|
 [G,C]2 [G,C][G,C] [G,D]>[G,D] [G,C]>[G,=B,] | (z2 B,A, G,2) [F,C]>[F,C] x2 | [F,F]2 [F,C]>[F,B,] | %15
w: side now shall claim your gal- lant|* * * deeds? Do|you march with|
 [F,A,]2 [C,C]>[C,C] | [F,C]>[_E,C] [D,B,]>[C,A,] !fermata![B,,B,]2 [=B,,^G,]2 | %17
w: the King ’neath|the ban- ner of the right|
 [C,A,]<[C,A,] [C,A,]>[C,C] [C,B,]>[C,G,] [C,C]>[C,B,] | [F,A,]6 z |] %19
w: Or fol- low where the prince of dark-|ness|
V:4
 x | x8 | x8 | x8 | x8 | x8 | x8 | x8 | x6 || x2 | x8 | x8 | x8 | [C,G,C]6 x4 | x4 | x4 | x8 | x8 | %18
 x7 |] %19

